X:1
T:Come Softly To Me (Transcribed)
T:Come Softly To Me
C:Gary Troxel, Gretchen Christopher and Barbara Ellis
Z:All Rights Reserved
L:1/8
M:4/4
K:F
V:1 treble nm="Piano (Melody)" snm="Piano (Melody)"
%%MIDI program 0
V:1
 z4 z"C7" C DE |"F " F2 c2 d4 | cA c d2 c AF | D2 c2 d4 | cA c d2 c AF |"Gmin" G2 B2 c4 | %6
w: Um Doo Be|Doo... Dom Dom|Do- m Doo Do- m Doo Be|Doo... Dom Dom|Do- m Doo Do- m Doo Be|Doo... Dom Dom|
 BA B c2 B AG |"C7" C2 A2 G4 | Ac A G2 C DE |"F " F2 c2 d2 f2- | f2 g2 f4 | z2 c2 d2 f2- | %12
w: Do- m Doo Do- m Doo Be|Doo... Dom Dom|Do- m Doo Dom... Um Doo Be|Doo... Come Soft- ly|* Dar- ling.|Come soft- ly|
 f2 g2 f4 |"Gmin" z2 G2 B2 B2- | B2 c2 B4 |"C7" z2 A2 G2 G2- | G2 A2 G4 |"F " z2 c2 d2 f2- | %18
w: * dar- Ling.|Come soft- ly|* dar- ling.|Come soft- ly|* dar- ling.|Come soft- ly|
 f2 g2 f4 | z2 c2 d2 f2- | f2 g2 f4 |"Gmin" z2 G2 B2 B2 | z2 c2 B2 B2 |"C7" A2 B2 G2 G2 | %24
w: * dar- ling.|Come to me|* sta- y.|You're my ob-|ses- sion for|e\- ver and a|
 z2 A2 G4 |"F " z2 c2 d4 | cA c d2 c AF | D2 c2 d4 | cA c d2 c AF |"Gmin" G2 B2 c4 | BA B c2 B AG | %31
w: da- y.|I want,|want you to know... oh doo be|doo... I love,|I love you so... oh doo be|doo... Please hold,|hold me so tight... oh doo be|
"C7" C2 A2 G4 | Ac AG- G2 z2 |"F " z2 c2 d2 f2- | f2 g2 f4 | z2 c2 d2 f2- | f2 g2 f4 | %37
w: doo... all through,|all through the night. *|Speak soft- ly|* dar- ling.|Hear what I|* sa- y.|
"Gmin" z2 G2 B2 B2- | B2 c2 B4 | z2 A2 G4 | z2 A2 G4 |"F " z2 c2 d d3 | cA c d2 c AF | D2 cA d d3 | %44
w: I love you|* al- ways,|al- ways,|al- ways.|I've wait- ed,|wait- ed so long... oh doo be|doo... for your kis- ses|
 c2 e d2 c AF |"Gmin" G2 B2 c4 | BA B c2 B AG |"C7" C2 A2 G4 | Ac A G2 C DE |"F " F2 c2 d4 | %50
w: and your love... oh doo be|doo... Please come,|co- me to me... oh doo be|doo... from up,|from up a\- bove... Um Doo Be|Doo... I want,|
 cA c d2 c AF | D2 c2 d4 | cA c d2 c AF |"Gmin" G2 B2 c4 | BA B c2 B AG |"C7" C2 AA G2 z G | %56
w: want you to know... oh doo be|doo... I love,|I love you so... oh doo be|doo... I need,|need you so much... oh doo be|doo... Wan- na feel your|
 A2 A2 GC DE |"F " F2 c2 d4 | cA c d2 c AF | D2 c2 d4 | cA c d2 c AF |"Gmin" G2 B2 c4 | %62
w: warm, warm touch... Um Doo Be|Doo... Dom Dom|Do- m Doo Do- m Doo Be|Doo... Dom Dom|Do- m Doo Do- m Doo Be|Doo... Dom Dom|
 BA B c2 B AG |"C7" C2 A2 G4 | Ac A G2 C DE |"F " F2 c2 d4 | cA c d2 c AF | D2 c2 d4 | %68
w: Do- m Doo Do- m Doo Be|Doo... Dom Dom|Do- m Doo Dom Um Doo Be|Doo... Dom Dom|Do- m Doo Do- m Doo Be|Doo... Dom Dom|
 cA c d2 c AF |"Gmin" G2 B2 c4 | BA B c2 B AG |"C7" C2 A2 G4 | Ac A G2 C DE |"F " F8 |] %74
w: Do- m Doo Do- m Doo Be|Doo... Dom Dom|Do- m Doo Do- m Doo Be|Doo... Dom Dom|Do- m Doo Dom Um Doo Be|Doo|

